melody-of-light/img/icons/icomoon/size-height.svg

<svg width="19" height="20" viewBox="0 0 19 20" fill="none" xmlns="http://www.w3.org/2000/svg">
<path d="M9.35355 4.14645C9.15829 3.95118 8.84171 3.95118 8.64645 4.14645L5.46447 7.32843C5.2692 7.52369 5.2692 7.84027 5.46447 8.03553C5.65973 8.2308 5.97631 8.2308 6.17157 8.03553L9 5.20711L11.8284 8.03553C12.0237 8.2308 12.3403 8.2308 12.5355 8.03553C12.7308 7.84027 12.7308 7.52369 12.5355 7.32843L9.35355 4.14645ZM8.64645 15.8536C8.84171 16.0488 9.15829 16.0488 9.35355 15.8536L12.5355 12.6716C12.7308 12.4763 12.7308 12.1597 12.5355 11.9645C12.3403 11.7692 12.0237 11.7692 11.8284 11.9645L9 14.7929L6.17157 11.9645C5.97631 11.7692 5.65973 11.7692 5.46447 11.9645C5.2692 12.1597 5.2692 12.4763 5.46447 12.6716L8.64645 15.8536ZM8.5 4.5L8.5 15.5L9.5 15.5L9.5 4.5L8.5 4.5Z" fill="#93939F"/>
</svg>

<svg width="19" height="20" fill="none" xmlns="http://www.w3.org/2000/svg"><path d="M9.354 4.146a.5.5 0 00-.708 0L5.464 7.328a.5.5 0 10.708.708L9 5.207l2.828 2.829a.5.5 0 10.708-.708L9.354 4.146zm-.708 11.708a.5.5 0 00.708 0l3.182-3.182a.5.5 0 10-.708-.708L9 14.793l-2.828-2.829a.5.5 0 10-.708.708l3.182 3.182zM8.5 4.5v11h1v-11h-1z" fill="#93939F"/></svg>
